build/assets/img/email-phone.svg

<svg width="19" height="14" viewBox="0 0 19 14" fill="none" xmlns="http://www.w3.org/2000/svg">
<path fill-rule="evenodd" clip-rule="evenodd" d="M8.87195 8.22812C7.57651 7.06118 3.16894 3.31863 0.657055 1.19134C0.500665 1.05915 0.476823 0.826805 0.603435 0.665232C0.896089 0.291756 1.33251 0.0776367 1.80018 0.0776367H17.0518C17.5196 0.0776367 17.9559 0.291756 18.2486 0.665196C18.3752 0.826804 18.3514 1.05915 18.195 1.19134C15.6831 3.31863 11.2755 7.06154 9.97897 8.22962C9.80546 8.38636 9.61926 8.46568 9.42601 8.46568C9.23238 8.46568 9.04585 8.38561 8.87195 8.22812ZM17.9496 2.39929C18.0621 2.3032 18.2211 2.28125 18.3563 2.34417C18.491 2.40636 18.5774 2.54152 18.5774 2.69008V12.279C18.5774 13.1202 17.8934 13.8042 17.0523 13.8042H1.80057C0.959393 13.8042 0.275391 13.1202 0.275391 12.279V2.69008C0.275391 2.54152 0.361789 2.40672 0.496552 2.34413C0.6306 2.28197 0.789956 2.30317 0.903165 2.39925C3.17712 4.32658 7.16954 7.7206 8.36181 8.79484C8.99109 9.36231 9.8624 9.36231 10.4902 8.79559C11.6088 7.78766 15.164 4.76075 17.9496 2.39929Z" fill="white"/>
</svg>

<svg width="19" height="14" fill="none" xmlns="http://www.w3.org/2000/svg"><path fill-rule="evenodd" clip-rule="evenodd" d="M8.872 8.228C7.577 7.061 3.169 3.318.657 1.191A.381.381 0 01.603.665C.896.292 1.333.078 1.8.078h15.252c.468 0 .904.214 1.197.587a.381.381 0 01-.054.526c-2.512 2.128-6.92 5.87-8.216 7.039-.174.156-.36.236-.553.236-.194 0-.38-.08-.554-.238zM17.95 2.4a.38.38 0 01.627.291v9.589c0 .841-.684 1.525-1.525 1.525H1.801A1.527 1.527 0 01.275 12.28V2.69a.382.382 0 01.628-.29C3.177 4.326 7.17 7.72 8.362 8.794c.63.567 1.5.567 2.128 0 1.119-1.007 4.674-4.034 7.46-6.396z" fill="#fff"/></svg>
